;G-Code generated by coilCalculator.py
;maxX : 19.940
;maxY : 21.000
G90
G00 Z5.00
M10 O6.1
G0 Z5
G0 X3.440 Y0.500
G0 Z0.5
G01 Z-0.3 F7.500
G1 X3.440 Y6.500
G3 X2.940 Y7.000 I-0.500 J0.000
G1 X2.000 Y7.000
G2 X0.500 Y8.500 I0.000 J1.500
G1 X0.500 Y19.500
G2 X2.000 Y21.000 I1.500 J0.000
G1 X5.078 Y21.000
G2 X6.578 Y19.500 I0.000 J-1.500
G1 X6.578 Y13.500
G3 X7.078 Y13.000 I0.500 J0.000
G1 X10.018 Y13.000
G3 X10.518 Y13.500 I0.000 J0.500
G1 X10.518 Y18.000
G3 X10.018 Y18.500 I-0.500 J0.000
G1 X9.940 Y18.500
G3 X9.440 Y18.000 I0.000 J-0.500
G1 X9.440 Y14.500
G2 X8.940 Y14.000 I-0.500 J0.000
G1 X7.440 Y14.000
G2 X6.940 Y14.500 I0.000 J0.500
G1 X6.940 Y19.500
G2 X8.440 Y21.000 I1.500 J0.000
G1 X11.518 Y21.000
G2 X13.018 Y19.500 I0.000 J-1.500
G1 X13.018 Y12.000
G2 X11.518 Y10.500 I-1.500 J0.000
G1 X5.578 Y10.500
G2 X4.078 Y12.000 I0.000 J1.500
G1 X4.078 Y18.000
G3 X3.578 Y18.500 I-0.500 J0.000
G1 X3.500 Y18.500
G3 X3.000 Y18.000 I0.000 J-0.500
G1 X3.000 Y10.000
G3 X3.500 Y9.500 I0.500 J0.000
G1 X4.440 Y9.500
G2 X5.940 Y8.000 I0.000 J-1.500
G1 X5.940 Y1.000
G2 X5.440 Y0.500 I-0.500 J0.000
G1 X3.940 Y0.500
G2 X3.440 Y1.000 I0.000 J0.500
G0 Z5
G0 Z5
G0 X6.940 Y8.500
G0 Z0.5
G01 Z-0.3 F7.500
G1 X19.440 Y8.500
G2 X19.940 Y8.000 I0.000 J-0.500
G1 X19.940 Y6.500
G2 X19.440 Y6.000 I-0.500 J0.000
G1 X7.440 Y6.000
G2 X6.940 Y6.500 I0.000 J0.500
G1 X6.940 Y8.000
G2 X7.440 Y8.500 I0.500 J0.000
G0 Z5
M10 O6.0
