;G-Code generated by coilCalculator.py
;maxX : 35.416
;maxY : 26.000
G90
G00 Z5.00
M10 O6.1
G0 Z5
G0 X14.850 Y0.500
G0 Z0.5
G01 Z-0.3 F7.500
G1 X14.850 Y5.500
G3 X14.350 Y6.000 I-0.500 J0.000
G1 X10.066 Y6.000
G2 X8.566 Y7.500 I0.000 J1.500
G1 X8.566 Y10.000
G3 X8.066 Y10.500 I-0.500 J0.000
G1 X2.000 Y10.500
G2 X0.500 Y12.000 I0.000 J1.500
G1 X0.500 Y24.500
G2 X2.000 Y26.000 I1.500 J0.000
G1 X15.066 Y26.000
G2 X16.566 Y24.500 I0.000 J-1.500
G1 X16.566 Y14.500
G3 X17.066 Y14.000 I0.500 J0.000
G1 X31.416 Y14.000
G3 X31.916 Y14.500 I0.000 J0.500
G1 X31.916 Y22.000
G3 X31.416 Y22.500 I-0.500 J0.000
G1 X23.350 Y22.500
G3 X22.850 Y22.000 I0.000 J-0.500
G1 X22.850 Y15.500
G2 X22.350 Y15.000 I-0.500 J0.000
G1 X19.850 Y15.000
G2 X19.350 Y15.500 I0.000 J0.500
G1 X19.350 Y24.500
G2 X20.850 Y26.000 I1.500 J0.000
G1 X33.916 Y26.000
G2 X35.416 Y24.500 I0.000 J-1.500
G1 X35.416 Y12.000
G2 X33.916 Y10.500 I-1.500 J0.000
G1 X14.566 Y10.500
G2 X13.066 Y12.000 I0.000 J1.500
G1 X13.066 Y22.000
G3 X12.566 Y22.500 I-0.500 J0.000
G1 X4.500 Y22.500
G3 X4.000 Y22.000 I0.000 J-0.500
G1 X4.000 Y14.500
G3 X4.500 Y14.000 I0.500 J0.000
G1 X10.566 Y14.000
G2 X12.066 Y12.500 I0.000 J-1.500
G1 X12.066 Y10.000
G3 X12.566 Y9.500 I0.500 J0.000
G1 X16.850 Y9.500
G2 X18.350 Y8.000 I0.000 J-1.500
G1 X18.350 Y1.000
G2 X17.850 Y0.500 I-0.500 J0.000
G1 X15.350 Y0.500
G2 X14.850 Y1.000 I0.000 J0.500
G0 Z5
G0 Z5
G0 X19.350 Y8.500
G0 Z0.5
G01 Z-0.3 F7.500
G1 X32.850 Y8.500
G2 X33.350 Y8.000 I0.000 J-0.500
G1 X33.350 Y5.500
G2 X32.850 Y5.000 I-0.500 J0.000
G1 X19.850 Y5.000
G2 X19.350 Y5.500 I0.000 J0.500
G1 X19.350 Y8.000
G2 X19.850 Y8.500 I0.500 J0.000
G0 Z5
M10 O6.0
